X:268
T: O DU FROEHLICHE
N: B0747
O: Europa, Mitteleuropa, Deutschland
R: Weihnachts - Lied, religioes
M: 4/4
L: 1/8
K: F
 | c4d4 | c3BA2B2 |
c4d4 | c3BA2B2 |
c4c4 | d4e2f2 | e4d4 | e4z4 |
G3AG2A2 | B3cB4 |
A3BA2B2 | c3dc4 |
f2e2d2c2 | f2d2c2B2 | A4G4 | F4z4

@@@ Tune index: 2486
